X: 1
T: the Fly In The Porter
C: Paddy O'Brien
B: "The Compositions Of Paddy O'Brien" p.14
S: https://thesession.org/tunes/4225
L: 1/8
Q: 360
K: D
M: 6/8
|:\
AFA d2A | dfa  gfe | fdd  e2d | =cAG EFG |\
AFA d2A | dfa  gfe | fed =cAG | Adc  d3 :|
|:\
ABA GFG | A2D  FED | E2=c cBc | GEG =cAG |\
ABA GFG | Add  efg | fed =cAG | Adc  d3 :|
|:\
f2d efg | AdB =cAG | fdd  efg | age  d2e |\
faf gfg | AdB =cde | fed =cAG | Adc  d3 :|
